X: 15570
T: Glorishears
R: polka
M: 2/4
K: Gmajor
D|G>G GA|.Gz D2|B,>C DE|.Dz DD|
G>G GA|.Gz D2|B,>C DE|.Dz DD|
G>G GA|.Gz G2|F>G AB|.Az A2|
G/A/B/A/ Gd/c/|BA G||
|:d/c/|BB/A/ B/c/d/B/|cA A>c|BB/A/ GB|A/G/F/E/ D2|
GF/E/ DG|AG/F/ G>A|BA/G/ F/G/A/F/|G2G:|

